X:355
L:1/8
M:4/4
K:Ador
 EA A/B/c/d/ e>d cA | BG G/F/G/A/ B/G/A/G/ ED | E2 A2 AB cd | e3 d c2 A2 | B2 G2 GF G>A | 
 BG AG E/F/E D2 | E2 A z z B c>d | e2 a>b a2 g2 | e2 d2 Be dB | A2 A>^G A2 :| a2 e2 e2 g/f/e | 
 z a z g e2 fg | a>b af g>a ge | d2 c/B/A G2 fg | z a z e e2 fg | ab ag e3 d | B2 e/f/e d2 B/c/B | 
 A3 B A2 :|

